X:1
T: Bolt The Door
C:
R:Jig
Q:180
K:Am
M:6/8
L:1/16
|:gf|e2c2A2 A4B2|G4E2 E4B2|c4A2 B4G2|A4B2 c4d2|
e2c2A2 A4B2|G4E2 E4B2|c4A2 B4G2|A2B2A2 A4:|
B2|c2B2A2 G4B2|e6 d4B2|c4A2 B4G2|A4B2 c4d2|
e2c2A2 A4d2|e6 d4B2|c4A2 B4A2|G6 g4e2|
d2B2G2 G4d2|e6 d4B2|c4A2 B4G2|A4B2 c4d2|
e2c2A2 A4d2|e4a2 a4^f2|g4e2 d4B2|A6 A4||
